!!!OTL: Aue stella matutina
**kern
*staff1
=1-
*clefF3
*k[]
*met(c|)
*M2/2
2r
2A\
2F\
2D/
=2
1E
2F\
2C/
=3
1G
1C;
!!linebreak:original
=4
1c
2A\
1A
1d
1c
2F\
1G
1C;
=5
!!linebreak:original
1c
2G\
1A
2D/
1E;
=6
1C
2G\
1A
2D/
1E;
!!linebreak:original
=7
2r
2G\
2A\
2G\
1C
=8
2F\
2D/
1E
1AA
!!linebreak:original
=9
2r
2A\
2D/
2A\
=10
4D/
4E/
4F\
4G\
0A
==
*-
!!title: @{OTL}, @{GTL}, ed. @{ENC}
!!!pag:
!!!GTL: Hymnbook D
!!!EFL: 
!!!YEM: Creative Commons CC/BY/NC/SA 4.0
!!!ENC: Marcin Konik
!!!END: 2015-0m-dd
!!!EED: Marcin Konik
!!!EEV: 
!!!ONB: Encoded in vim by Marcin Konik
!!!CharacterEncoding: utf-8
!!!RDF**kern: l=long note in original notation
!!!RDF**kern: i=editorial accidental
!!muse2ps: z14jc180F
!!!COM: Anonim
!!!CDT: [?]
!!!TXO: Polish
!!!ODT: 
!!!GTL: Hymnbook D
!!!ARL: Opactwo św. Wojciecha, Staniątki 
!!!voices:	1
